assets/icons/lockdark.svg

<svg width="24" height="24" viewBox="0 0 24 24" fill="none" xmlns="http://www.w3.org/2000/svg">
<path d="M6 10V8C6 4.69 7 2 12 2C17 2 18 4.69 18 8V10" stroke="#CBD2D9" stroke-width="1.5" stroke-linecap="round" stroke-linejoin="round"/>
<path d="M17 22H7C3 22 2 21 2 17V15C2 11 3 10 7 10H17C21 10 22 11 22 15V17C22 21 21 22 17 22Z" stroke="#CBD2D9" stroke-width="1.5" stroke-linecap="round" stroke-linejoin="round"/>
<path d="M15.9965 16H16.0054" stroke="#CBD2D9" stroke-width="1.5" stroke-linecap="round" stroke-linejoin="round"/>
<path d="M11.9955 16H12.0045" stroke="#CBD2D9" stroke-width="1.5" stroke-linecap="round" stroke-linejoin="round"/>
<path d="M7.99451 16H8.00349" stroke="#CBD2D9" stroke-width="1.5" stroke-linecap="round" stroke-linejoin="round"/>
</svg>

<svg width="24" height="24" viewBox="0 0 24 24" fill="none" xmlns="http://www.w3.org/2000/svg"><path d="M6 10V8c0-3.31 1-6 6-6s6 2.69 6 6v2m-1 12H7c-4 0-5-1-5-5v-2c0-4 1-5 5-5h10c4 0 5 1 5 5v2c0 4-1 5-5 5m-9-6" stroke="#CBD2D9" stroke-width="1.5" stroke-linecap="round" stroke-linejoin="round"/></svg>
